packages/assets/static/images/icons/tree-evergreen.svg

<svg width="24" height="24" viewBox="0 0 24 24" xmlns="http://www.w3.org/2000/svg">
<path d="M21.5944 17.5398L17.2819 12.0001H19.5019C19.642 12.0001 19.7793 11.9609 19.8982 11.8869C20.0171 11.8129 20.113 11.707 20.1748 11.5813C20.2367 11.4556 20.2621 11.3151 20.2483 11.1757C20.2344 11.0363 20.1817 10.9036 20.0963 10.7926L12.5963 1.0426C12.5262 0.951567 12.4362 0.877844 12.3331 0.827113C12.2301 0.776383 12.1167 0.75 12.0019 0.75C11.887 0.75 11.7737 0.776383 11.6706 0.827113C11.5676 0.877844 11.4776 0.951567 11.4075 1.0426L3.9075 10.7926C3.82205 10.9036 3.76939 11.0363 3.7555 11.1757C3.74161 11.3151 3.76704 11.4556 3.8289 11.5813C3.89077 11.707 3.98661 11.8129 4.10555 11.8869C4.22449 11.9609 4.36179 12.0001 4.50188 12.0001H6.71813L2.40563 17.5398C2.31924 17.6509 2.26587 17.7841 2.25161 17.9241C2.23734 18.0641 2.26276 18.2053 2.32495 18.3316C2.38715 18.4578 2.48361 18.564 2.60332 18.638C2.72302 18.712 2.86114 18.7509 3.00188 18.7501H11.2519V22.5001C11.2519 22.699 11.3309 22.8898 11.4715 23.0304C11.6122 23.1711 11.803 23.2501 12.0019 23.2501C12.2008 23.2501 12.3916 23.1711 12.5322 23.0304C12.6729 22.8898 12.7519 22.699 12.7519 22.5001V18.7501H21.0019C21.1423 18.7502 21.2799 18.7108 21.3991 18.6365C21.5182 18.5622 21.6141 18.456 21.6759 18.3299C21.7376 18.2037 21.7627 18.0628 21.7483 17.9231C21.7339 17.7835 21.6806 17.6506 21.5944 17.5398ZM4.53563 17.2501L8.84813 11.7104C8.93451 11.5993 8.98788 11.4661 9.00215 11.3261C9.01641 11.1861 8.99099 11.0449 8.9288 10.9186C8.8666 10.7924 8.77014 10.6862 8.65043 10.6122C8.53073 10.5382 8.39261 10.4993 8.25188 10.5001H6.02531L12.0019 2.7301L17.9784 10.5001H15.7519C15.6115 10.5002 15.474 10.5397 15.355 10.614C15.236 10.6884 15.1402 10.7947 15.0786 10.9208C15.017 11.0468 14.992 11.1877 15.0064 11.3273C15.0209 11.4669 15.0742 11.5996 15.1603 11.7104L19.4681 17.2501H4.53563Z"/>
</svg>

<svg viewBox="0 0 24 24" xmlns="http://www.w3.org/2000/svg" aria-hidden="true" fill="currentColor"><path d="M21.594 17.54 17.282 12h2.22a.75.75 0 0 0 .594-1.207l-7.5-9.75a.75.75 0 0 0-1.188 0l-7.5 9.75A.75.75 0 0 0 4.502 12h2.216l-4.312 5.54a.75.75 0 0 0 .596 1.21h8.25v3.75a.75.75 0 1 0 1.5 0v-3.75h8.25a.75.75 0 0 0 .592-1.21m-17.058-.29 4.312-5.54a.75.75 0 0 0-.596-1.21H6.025l5.977-7.77 5.976 7.77h-2.226a.75.75 0 0 0-.592 1.21l4.308 5.54z"/></svg>
